X: 14
T: Puis que si bien m'est advenu
N: Derived from Com3032-Puis_que_si_bien_mest_advenu.krn
C: Loyset Comp\`ere
%%abc-version 2.0
%%abcx-abcm2ps-target-version 5.9.1 (29 Sep 2008)
%%abc-creator hum2abc beta
%%abcx-conversion-date 2019/02/16 20:28:09
%%abc-edited-by Jesse Rodin
%%abc-edited-by Megan K. Eagen 2013/12/01
%%abcx-initial-encoding-date 2013/12/01/
%%humdrum-veritas 648748866
%%humdrum-veritas-data 329438430
%%linebreak <none>
%%barnumbers 0
L: 1/4
M: 2/1
Q: 1/2=120
V: 1 clef=treble
V: 2 clef=treble-8
V: 3 clef=bass
K: F
[V:1] z8 | 
[V:2] z8 | 
[V:3] C,8 | 
[V:1] z8 | 
[V:2] z8 | 
[V:3] D,4E,4 | 
[V:1] z8 | 
[V:2] F8 | 
[V:3] F,6_E,D, | 
[V:1] z8 | 
[V:2] G4A4 | 
[V:3] _E,4C,4 | 
[V:1] F8 | 
[V:2] B6A2 | 
[V:3] B,,8 | 
[V:1] G4A4 | 
[V:2] B2c2A4 | 
[V:3] G,,4F,,4 | 
[V:1] B6AG | 
[V:2] G8 | 
[V:3] G,,8 | 
[V:1] A4G4- | 
[V:2] F4G4 | 
[V:3] D,4E,4 | 
[V:1] G4c4- | 
[V:2] c6B2 | 
[V:3] C,6D,E, | 
[V:1] c2B2A2G2 | 
[V:2] A2G2A2B2 | 
[V:3] F,2G,2F,2E,2 | 
[V:1] A4B4 | 
[V:2] A4G4 | 
[V:3] F,4E,4 | 
[V:1] A4G4- | 
[V:2] F4E4 | 
[V:3] F,4C,4 | 
[V:1] G4F4- | 
[V:2] F8 | 
[V:3] D,8 | 
[V:1] F2EDE4 | 
[V:2] G8 | 
[V:3] C,8 | 
[V:1] F8 | 
[V:2] F8 | 
[V:3] F,,3G,,A,,2B,,2- | 
[V:1] z8 | 
[V:2] z8 | 
[V:3] B,,2A,,2B,,2C,2 | 
[V:1] A8 | 
[V:2] F8 | 
[V:3] D,4D,2D,2- | 
[V:1] A4A4 | 
[V:2] F4F4 | 
[V:3] D,2C,B,,A,,4 | 
[V:1] B6AG | 
[V:2] G6A2 | 
[V:3] G,,4_E,4 | 
[V:1] F4B4- | 
[V:2] B8 | 
[V:3] D,4B,,4 | 
[V:1] B4G4- | 
[V:2] G8 | 
[V:3] _E,8 | 
[V:1] G4c4- | 
[V:2] c6B2 | 
[V:3] C,8 | 
[V:1] c2B2A2G2 | 
[V:2] A2G2F2GA | 
[V:3] F,6E,2 | 
[V:1] F4B4- | 
[V:2] B6A2 | 
[V:3] D,2C,2B,,4 | 
[V:1] B2A2G2F2 | 
[V:2] G2F2_E2F2 | 
[V:3] _E,6D,2 | 
[V:1] _E2F2G4- | 
[V:2] G6F2 | 
[V:3] C,2B,,A,,G,,4 | 
[V:1] G2F2E2D2 | 
[V:2] E2D2C2DE | 
[V:3] C,6B,,2 | 
[V:1] C2DEF4 | 
[V:2] F4D4 | 
[V:3] A,,2G,,2F,,2B,,2- | 
[V:1] E2G4F2 | 
[V:2] G3FE2D2 | 
[V:3] B,,2G,,3A,,B,,2 | 
[V:1] E2D3CC2- | 
[V:2] C2B,2C4 | 
[V:3] C,2G,,2A,,4 | 
[V:1] C2=B,2C4 | 
[V:2] D4C4- | 
[V:3] G,,4A,,4 | 
[V:1] z4C2DE | 
[V:2] C2DEF4 | 
[V:3] F,,6B,,2- | 
[V:1] F4D2EF | 
[V:2] D2EFG4 | 
[V:3] B,,2G,,2A,,B,,C,2- | 
[V:1] G4E2FG | 
[V:2] E2FGA4 | 
[V:3] C,2A,,2B,,C,D,2- | 
[V:1] A4F2GA | 
[V:2] F2GAB4 | 
[V:3] D,2B,,2C,D,_E,2- | 
[V:1] B4G2AB | 
[V:2] G2ABc4 | 
[V:3] E,2C,2D,=E,F,2- | 
[V:1] c4A2B2 | 
[V:2] A2Bcd4 | 
[V:3] F,2D,2E,F,G,2 | 
[V:1] c2d3cc2- | 
[V:2] c2B2c4 | 
[V:3] A,2G,2C,4 | 
[V:1] c2=B2c4- | 
[V:2] d4z4 | 
[V:3] G,4C,4- | 
[V:1] c4z4 | 
[V:2] c6B2 | 
[V:3] C,2B,,2A,,2G,,2 | 
[V:1] c6B2 | 
[V:2] A4G4 | 
[V:3] F,,4G,,4 | 
[V:1] A4G4 | 
[V:2] c4B4 | 
[V:3] A,,4B,,2A,,G,, | 
[V:1] c4B2G2 | 
[V:2] A4G4 | 
[V:3] F,,4G,,4 | 
[V:1] A4G4 | 
[V:2] c4B4 | 
[V:3] z2F,,2G,,4 | 
[V:1] c6BA | 
[V:2] A6Bc | 
[V:3] A,,4C,4 | 
[V:1] B2A2G2F2 | 
[V:2] d8 | 
[V:3] B,,8 | 
[V:1] E8 | 
[V:2] c8 | 
[V:3] C,8- | 
[V:1] z4E4 | 
[V:2] z4c4- | 
[V:3] C,8 | 
[V:1] E4E4 | 
[V:2] c4c4 | 
[V:3] z4C,4 | 
[V:1] D4E4 | 
[V:2] d4c4- | 
[V:3] B,,4C,4 | 
[V:1] F6ED | 
[V:2] c2=BA=B4 | 
[V:3] D,8 | 
[V:1] E4z2E2 | 
[V:2] c4C4 | 
[V:3] C,8 | 
[V:1] D2F2E2G2 | 
[V:2] D4E4 | 
[V:3] B,,4C,2_E,2 | 
[V:1] F2A2G2B2 | 
[V:2] F4G4 | 
[V:3] D,2F,2E,2G,2 | 
[V:1] A2c4B2 | 
[V:2] A4G4 | 
[V:3] F,2A,2B,2G,2 | 
[V:1] A2GFG4 | 
[V:2] c6B2 | 
[V:3] F,4E,4- | 
[V:1] F4B4- | 
[V:2] A2GFG4 | 
[V:3] E,2F,2D,2_E,C, | 
[V:1] B2A2G2F2 | 
[V:2] F4B4- | 
[V:3] B,,2C,D,_E,2F,2 | 
[V:1] E4F4 | 
[V:2] B2A2G2F2 | 
[V:3] C,4D,4 | 
[V:1] G4F4- | 
[V:2] E4F4 | 
[V:3] C,4F,,4 | 
[V:1] F4E4 | 
[V:2] G8 | 
[V:3] C,4C,4 | 
[V:1] F8 |]  
[V:2] F8 |]  
[V:3] F,,8 |]  



